img/filter-button_hover.svg

<svg width="23" height="24" viewBox="0 0 23 24" fill="none" xmlns="http://www.w3.org/2000/svg">
<path opacity="0.3" d="M11.5 21.8182C5.14855 21.8182 0 16.9331 0 10.9091V13.0909C0 19.1149 5.14855 24 11.5 24C17.8503 24 23 19.1149 23 13.0909V10.9091C23 16.9331 17.8503 21.8182 11.5 21.8182Z" fill="#ABABAB"/>
<path d="M11.5 21.8182C17.8513 21.8182 23 16.934 23 10.9091C23 4.88417 17.8513 0 11.5 0C5.14873 0 0 4.88417 0 10.9091C0 16.934 5.14873 21.8182 11.5 21.8182Z" fill="white"/>
<path d="M11.5 13.0909C12.7702 13.0909 13.8 12.1141 13.8 10.9091C13.8 9.70411 12.7702 8.72727 11.5 8.72727C10.2297 8.72727 9.19998 9.70411 9.19998 10.9091C9.19998 12.1141 10.2297 13.0909 11.5 13.0909Z" fill="#ABABAB"/>
</svg>

<svg width="23" height="24" fill="none" xmlns="http://www.w3.org/2000/svg"><path opacity=".3" d="M11.5 21.818C5.149 21.818 0 16.933 0 10.91v2.182C0 19.115 5.149 24 11.5 24 17.85 24 23 19.115 23 13.09v-2.18c0 6.023-5.15 10.908-11.5 10.908Z" fill="#ABABAB"/><path d="M11.5 21.818c6.351 0 11.5-4.884 11.5-10.909S17.851 0 11.5 0 0 4.884 0 10.91c0 6.024 5.149 10.908 11.5 10.908Z" fill="#fff"/><path d="M11.5 13.09c1.27 0 2.3-.976 2.3-2.18 0-1.206-1.03-2.183-2.3-2.183-1.27 0-2.3.977-2.3 2.182s1.03 2.182 2.3 2.182Z" fill="#ABABAB"/></svg>
